src/assets/svgs/total-net-worth.svg

<svg width="60" height="58" viewBox="0 0 60 58" fill="none" xmlns="http://www.w3.org/2000/svg">
<rect opacity="0.05" y="0.469879" width="59.0336" height="57.3825" rx="9.83947" fill="#427A0A"/>
<path fill-rule="evenodd" clip-rule="evenodd" d="M18.2003 42.4019H20.3688V31.8624H18.2003V42.4019ZM21.4531 44.5098H17.116C16.5164 44.5098 16.0317 44.0386 16.0317 43.4558V30.8085C16.0317 30.2256 16.5164 29.7545 17.116 29.7545H21.4531C22.0527 29.7545 22.5374 30.2256 22.5374 30.8085V43.4558C22.5374 44.0386 22.0527 44.5098 21.4531 44.5098Z" fill="#427A0A"/>
<path fill-rule="evenodd" clip-rule="evenodd" d="M27.9586 42.4019H30.1271V23.4308H27.9586V42.4019ZM31.2114 44.5097H26.8743C26.2747 44.5097 25.79 44.0386 25.79 43.4558V22.3769C25.79 21.7941 26.2747 21.323 26.8743 21.323H31.2114C31.811 21.323 32.2957 21.7941 32.2957 22.3769V43.4558C32.2957 44.0386 31.811 44.5097 31.2114 44.5097Z" fill="#427A0A"/>
<path fill-rule="evenodd" clip-rule="evenodd" d="M37.7169 42.4019H39.8854V14.9993H37.7169V42.4019ZM40.9697 44.5098H36.6326C36.033 44.5098 35.5483 44.0386 35.5483 43.4558V13.9453C35.5483 13.3625 36.033 12.8914 36.6326 12.8914H40.9697C41.5693 12.8914 42.054 13.3625 42.054 13.9453V43.4558C42.054 44.0386 41.5693 44.5098 40.9697 44.5098Z" fill="#427A0A"/>
</svg>

<svg width="60" height="58" fill="none" xmlns="http://www.w3.org/2000/svg"><rect opacity=".05" y=".47" width="59.034" height="57.383" rx="9.839" fill="#427A0A"/><path fill-rule="evenodd" clip-rule="evenodd" d="M18.2 42.402h2.169v-10.54H18.2v10.54zm3.253 2.108h-4.337c-.6 0-1.084-.471-1.084-1.054V30.808c0-.582.484-1.053 1.084-1.053h4.337c.6 0 1.084.47 1.084 1.053v12.648c0 .583-.484 1.054-1.084 1.054zM27.959 42.402h2.168V23.43H27.96V42.4zm3.252 2.108h-4.337c-.6 0-1.084-.471-1.084-1.054v-21.08c0-.582.485-1.053 1.084-1.053h4.337c.6 0 1.085.471 1.085 1.054v21.079c0 .583-.485 1.054-1.085 1.054zM37.717 42.402h2.168V14.999h-2.168v27.403zm3.253 2.108h-4.337c-.6 0-1.085-.471-1.085-1.054v-29.51c0-.583.485-1.055 1.085-1.055h4.337c.6 0 1.084.472 1.084 1.054v29.51c0 .584-.485 1.055-1.084 1.055z" fill="#427A0A"/></svg>
